X: 160234
T: Port Lairge
R: polka
Z: B.Black
M: 2/4
L: 1/8
K: D
f/e/ | dB AF | A>B AA | dd ed/e/ | fe ef/e/ |
dB AF | A>B AA | dd ed/e/ | fd d :|
e | f>e fg | a2 gf | eb b>a | be ef/e/ |
dB AF | A>B AA | dd ed/e/ | fd d :|
